X: 11197
T: Dunmore Lasses, The
R: reel
M: 4/4
K: Eminor
V:1 gchord=down
"Em"E3 F GFGA|Be ~e2 Be ~e2|E3 F G2 BG|"D"AGBG AGED|
"Em"E3 F GFGA|Beed e2 ef|"C"ge"D"fd "Em"edBG|"D"AcBA "Em"GEDG:|
|:"Em"gfeg "D"fede|"Em"Be ~e2 Be ~e2|gfeg "D"fedB|"Am7"AcBA "Em"GE E2|
gfeg "D"fede|"Cmaj7"Beed e2 ef|"Em"ge"D"fd "G"edBG|"Am7"AcBA "Em"GE E2:|
V:2
B4 E3 F|G2 A2 B2 dc|B4 E3 d|A2 d2 F2 c2|
B4 E3 F|G2 A2 B2 d2|c2 d2 ef g2|f2 d2 B2 A2:|
|:B2 GB A2 F2|G2 EF G2 A2|B2 GE F2 D2|E3 D E2 B2|
e2 Be dcBA|GABG c2 BA|B3 A G2 D2|E2 d2 B4:|

